applications/dashboard/design/images/authenticators/facebook.svg

<svg xmlns="http://www.w3.org/2000/svg" viewBox="0 0 24 24"><title>Facebook</title><path d="M20.007 3H3.994A.994.994 0 0 0 3 3.994v16.013a.994.994 0 0 0 .994.993h8.62v-6.97h-2.345v-2.717h2.345v-2a3.273 3.273 0 0 1 3.494-3.591 19.256 19.256 0 0 1 2.1.107v2.426h-1.442c-1.128 0-1.346.536-1.346 1.322v1.735h2.69l-.351 2.717H15.42V21h4.587a.994.994 0 0 0 .993-.993V3.994A.994.994 0 0 0 20.007 3z" fill="#fff"/></svg>

<svg xmlns="http://www.w3.org/2000/svg" viewBox="0 0 24 24">
  <title>Facebook</title>
  <path d="M20.007,3H3.994A.994.994,0,0,0,3,3.994V20.007A.994.994,0,0,0,3.994,21h8.62V14.03H10.269V11.313h2.345v-2a3.273,3.273,0,0,1,3.494-3.591,19.256,19.256,0,0,1,2.1.107V8.255H16.766c-1.128,0-1.346.536-1.346,1.322v1.735h2.69l-.351,2.717H15.42V21h4.587A.994.994,0,0,0,21,20.007V3.994A.994.994,0,0,0,20.007,3Z" style="fill: #fff"/>
</svg>
